storage/app/icons/phosphoricons/bold/columns-plus-right-bold.svg

<svg xmlns="http://www.w3.org/2000/svg" fill="currentColor" viewBox="0 0 256 256"><path d="M80 28H56a20 20 0 0 0-20 20v160a20 20 0 0 0 20 20h24a20 20 0 0 0 20-20V48a20 20 0 0 0-20-20m-4 176H60V52h16Zm80-176h-24a20 20 0 0 0-20 20v160a20 20 0 0 0 20 20h24a20 20 0 0 0 20-20V48a20 20 0 0 0-20-20m-4 176h-16V52h16Zm100-76a12 12 0 0 1-12 12h-8v8a12 12 0 0 1-24 0v-8h-8a12 12 0 0 1 0-24h8v-8a12 12 0 0 1 24 0v8h8a12 12 0 0 1 12 12"/></svg>

<svg xmlns="http://www.w3.org/2000/svg" viewBox="0 0 256 256" fill="currentColor"><path d="M80,28H56A20,20,0,0,0,36,48V208a20,20,0,0,0,20,20H80a20,20,0,0,0,20-20V48A20,20,0,0,0,80,28ZM76,204H60V52H76ZM156,28H132a20,20,0,0,0-20,20V208a20,20,0,0,0,20,20h24a20,20,0,0,0,20-20V48A20,20,0,0,0,156,28Zm-4,176H136V52h16Zm100-76a12,12,0,0,1-12,12h-8v8a12,12,0,0,1-24,0v-8h-8a12,12,0,0,1,0-24h8v-8a12,12,0,0,1,24,0v8h8A12,12,0,0,1,252,128Z"/></svg>
